X: 1
T: Kings Of Inishbofin, The
M: 6/8
L: 1/8
R: jig
K: Dmaj
~A3 dAF|FGE E2A|Ace ged|~c3 ecB|
~A3 dAF|FGE E2A| Ace ged|cBc dcB:|
A2f fdA|Bgg gdB|Ace gec|~A3 bag|
~f3 fdA|Bgg g3|Ace bag|fge d3|
